X:1
T:Title
%%score 1 { 2 | 3 }
L:1/8
Q:1/4=84
M:2/4
K:Eb
V:1 treble nm="Grand Piano, Soprano"
V:2 treble nm="Choir Pad, Marylebone, 87.87.87 D"
V:3 bass 
V:1
 [EG]>[FA] [GB][GB] | [GB][GB] [Ac][GB] | [EG][GB] [Ge][Ge] | [Bd]>[Ac] [GB]2- | %4
w: By~George~Coles~Stebbins,~1894 * * *||||
 [GB][GB]/[GB]/ [FA][FA] | [GB][FA] [EG][EG] | [GB][Ge] [Fd][DB] | [Ec]>[DB] [DB]2 | %8
w: ||||
 [DB]>[DB] [Fd][Fd] | [Fc][Fd] [Ee][EB] | [EB]>[EG] [DA][DA] | [DB]>[DA] [EG]2 | %12
w: ||||
 [EG]>[DA] [EB][GB] | [Ee][GB] [Ac][Ae] | [Ed]>[Ec] [EB][EG] | [EG]>[DF] E2 | [_DE]>[DE] [CE][Ec] | %17
w: |||||
 [Ec][Ec] [Ec][Ae] | [Bd]>[Ac] [Ac][GB] | [GB]>[_G=A] [=GB]2 | [EG]>[DA] [EB][Ge] | %21
w: ||||
 [Ee][GB] [Ac][Ae] | [Ed]>[Ec] [EB][EG] | [EG]>[DF] E2- | E4 |] %25
w: ||||
V:2
 B,>B, EE | EE EE | B,B, B,B, | B,>[K:treble]E E2- | EB,/B,/[K:bass] B,B, | B,B, B,B, | EB, B,B, | %7
 =A,>B, B,2 | B,>B, B,[K:treble]F | EB, B,E | B,>B, B,B, | F,>B, B,2 | B,>B,[K:treble] EE | %13
 B,E EC | B,>A, G,B, | B,>A, G,2 | G,>G, A,A, | A,A, A,[K:treble]C | E>E EE | E>E E2 | B,>B, EB, | %21
 B,[K:treble]E EC | B,>A,[K:bass] G,B, | B,>A, G,2- | G,4 |] %25
V:3
 E,>E, E,E, | E,E, E,E, | E,E, E,E, | E,>E, E,2- | E,E,/E,/ B,,B,, | B,,B,, E,E, | E,E, F,F, | %7
 F,>F, B,,2 | z2 A,A, | A,A, G,G, | G,>E, F,F, | B,,>B,, E,2 | E,>F, G,E, | G,E, A,A, | %14
 A,,>A,, B,,B,, | B,,>B,, E,2 | E,>E, z2 | z2 z A, | A,>C E,E, | E,>E, E,2 | E,>F, G,E, | %21
 G,E, A,A, | A,,>A,, B,,B,, | B,,>B,, E,2- | E,4 |] %25

